preferences/32/preferences-log.svg

<?xml version="1.0" encoding="UTF-8" standalone="no"?>
<!-- Created with Inkscape (http://www.inkscape.org/) -->

<svg
   width="32"
   height="32"
   version="1.1"
   viewBox="0 0 32 32"
   id="svg22"
   sodipodi:docname="preferences-log.svg"
   inkscape:version="1.1.2 (0a00cf5339, 2022-02-04)"
   xmlns:inkscape="http://www.inkscape.org/namespaces/inkscape"
   xmlns:sodipodi="http://sodipodi.sourceforge.net/DTD/sodipodi-0.dtd"
   xmlns:xlink="http://www.w3.org/1999/xlink"
   xmlns="http://www.w3.org/2000/svg"
   xmlns:svg="http://www.w3.org/2000/svg">
  <sodipodi:namedview
     id="namedview24"
     pagecolor="#ffffff"
     bordercolor="#666666"
     borderopacity="1.0"
     inkscape:showpageshadow="2"
     inkscape:pageopacity="0.0"
     inkscape:pagecheckerboard="0"
     inkscape:deskcolor="#d1d1d1"
     showgrid="false"
     inkscape:zoom="25.62"
     inkscape:cx="11.202186"
     inkscape:cy="16.900859"
     inkscape:window-width="3440"
     inkscape:window-height="1356"
     inkscape:window-x="0"
     inkscape:window-y="0"
     inkscape:window-maximized="1"
     inkscape:current-layer="g858"
     inkscape:pageshadow="2" />
  <defs
     id="defs12">
    <linearGradient
       id="linearGradient1005-3-3"
       x1="5.2535"
       x2="9.3823996"
       y1="15.383"
       y2="2.9421"
       gradientTransform="matrix(0.99999,0,0,0.99999,1.632,-0.61743)"
       gradientUnits="userSpaceOnUse">
      <stop
         stop-color="#fa8200"
         offset="0"
         id="stop2" />
      <stop
         stop-color="#ff9600"
         offset=".36953"
         id="stop4" />
      <stop
         stop-color="#ffb400"
         offset="1"
         id="stop6" />
    </linearGradient>
    <filter
       id="filter4014"
       x="-0.062499933"
       y="-0.057692993"
       width="1.1249999"
       height="1.115386"
       color-interpolation-filters="sRGB">
      <feGaussianBlur
         stdDeviation="1.093751"
         id="feGaussianBlur9" />
    </filter>
    <linearGradient
       inkscape:collect="always"
       xlink:href="#linearGradient3487"
       id="linearGradient3403"
       gradientUnits="userSpaceOnUse"
       x1="6.9491749"
       y1="4.5549412"
       x2="11.215498"
       y2="59.052471" />
    <linearGradient
       id="linearGradient3487">
      <stop
         style="stop-color:#32373c;stop-opacity:1"
         offset="0"
         id="stop3481" />
      <stop
         id="stop3483"
         offset="0.36804965"
         style="stop-color:#1a1a1a;stop-opacity:1" />
      <stop
         style="stop-color:#31363b;stop-opacity:1"
         offset="1"
         id="stop3485" />
    </linearGradient>
    <linearGradient
       inkscape:collect="always"
       xlink:href="#linearGradient20604"
       id="linearGradient20558"
       gradientUnits="userSpaceOnUse"
       x1="25.802212"
       y1="20.373846"
       x2="25.111048"
       y2="58.912758" />
    <linearGradient
       id="linearGradient20604">
      <stop
         id="stop20598"
         offset="0"
         style="stop-color:#3d3d3d;stop-opacity:1" />
      <stop
         style="stop-color:#000000;stop-opacity:1"
         offset="0.61772454"
         id="stop20600" />
      <stop
         id="stop20602"
         offset="1"
         style="stop-color:#3d3d3d;stop-opacity:1" />
    </linearGradient>
    <filter
       inkscape:collect="always"
       style="color-interpolation-filters:sRGB"
       id="filter20720"
       x="-0.017024755"
       y="-0.016457183"
       width="1.0340491"
       height="1.0329144">
      <feGaussianBlur
         inkscape:collect="always"
         stdDeviation="0.14745661"
         id="feGaussianBlur20722" />
    </filter>
    <linearGradient
       gradientTransform="translate(0.36067797,-0.13016949)"
       xlink:href="#linearGradient4555"
       id="linearGradient4557"
       x1="43.499737"
       y1="64.011795"
       x2="44.141731"
       y2="0.30621234"
       gradientUnits="userSpaceOnUse" />
    <linearGradient
       id="linearGradient4555">
      <stop
         style="stop-color:#141618;stop-opacity:1"
         offset="0"
         id="stop4551" />
      <stop
         id="stop4559"
         offset="0.51820582"
         style="stop-color:#686868;stop-opacity:1" />
      <stop
         style="stop-color:#31363b;stop-opacity:1"
         offset="1"
         id="stop4553" />
    </linearGradient>
    <filter
       style="color-interpolation-filters:sRGB"
       id="filter4601"
       x="-0.030244762"
       width="1.0604895"
       y="-0.030100647"
       height="1.0602013">
      <feGaussianBlur
         stdDeviation="0.014790289"
         id="feGaussianBlur4603" />
    </filter>
    <linearGradient
       id="b"
       gradientTransform="matrix(0.66667,0,0,0.63518,-256.381,-317.28)"
       gradientUnits="userSpaceOnUse"
       x2="0"
       y1="543.79797"
       y2="502.655">
      <stop
         offset="0"
         stop-color="#c6cdd1"
         id="stop14" />
      <stop
         offset="1"
         stop-color="#e0e5e7"
         id="stop16" />
    </linearGradient>
    <linearGradient
       id="c"
       gradientUnits="userSpaceOnUse"
       x1="7"
       x2="22"
       y1="10"
       y2="25">
      <stop
         offset="0"
         id="stop19" />
      <stop
         offset="1"
         stop-opacity="0"
         id="stop21" />
    </linearGradient>
    <radialGradient
       id="d"
       cx="2"
       cy="5.5"
       gradientTransform="matrix(0,1.37931,-2.27586,0,14.517,9.241)"
       gradientUnits="userSpaceOnUse"
       r="14.5"
       xlink:href="#a" />
    <linearGradient
       id="a">
      <stop
         offset="0"
         stop-color="#292c2f"
         id="stop7" />
      <stop
         offset="1"
         stop-opacity="0"
         id="stop9" />
    </linearGradient>
    <radialGradient
       id="e"
       cx="12"
       cy="1"
       gradientTransform="matrix(0,0.31579,-1.89476,-5e-5,3.895,5.21)"
       gradientUnits="userSpaceOnUse"
       r="9.5"
       xlink:href="#a" />
    <linearGradient
       id="f"
       gradientUnits="userSpaceOnUse"
       x1="2"
       x2="2"
       y1="27"
       y2="9">
      <stop
         offset="0"
         stop-color="#31363b"
         id="stop2-7" />
      <stop
         offset="1"
         stop-color="#4f575f"
         id="stop4-8" />
    </linearGradient>
  </defs>
  <g
     id="g858"
     transform="matrix(0.92407763,0,0,1,1.3230567,-0.59203295)">
    <path
       d="M 0,6 C 0,3 1,2 4.1058886,2 H 28.069417 C 31,2 32,3 32,6 v 21 c 0,2 -1,3 -2.985451,3 H 3 C 1,30 0,29 0,26.909873 Z"
       fill="url(#b)"
       id="path24"
       sodipodi:nodetypes="ccccccccc"
       style="fill:url(#b)" />
    <path
       d="M 1,28 31,8 32,9 V 30 H 3 Z"
       fill="url(#c)"
       fill-rule="evenodd"
       opacity="0.2"
       id="path26"
       style="fill:url(#c)" />
    <path
       d="m 4,2 h 24 c 3,0 4,1 4,4 H 0 C 0,3 1,2 4,2 Z"
       fill="#566069"
       id="path28"
       sodipodi:nodetypes="ccccc" />
    <path
       d="M 0,6 H 32 V 7 H 0 Z"
       fill="#3daee9"
       id="path30" />
    <path
       d="M 1,8 H 31 V 28 H 1 Z"
       fill="#eff0f1"
       id="path32" />
    <rect
       fill="#eff0f1"
       height="1.7741354"
       rx="1"
       width="2"
       x="27.590988"
       y="3.3139999"
       id="rect34"
       style="stroke-width:0.941843" />
    <path
       d="m 2,27 1,1 H 31 V 13 l -1,-1 z"
       fill="url(#d)"
       opacity="0.2"
       id="path36"
       style="fill:url(#d)" />
    <path
       d="M 2,12 H 30 V 27 H 2 Z"
       fill="#fcfcfc"
       id="path38" />
    <path
       d="m 2,10 2,2 H 20 V 10 L 19,9 Z"
       fill="url(#e)"
       opacity="0.2"
       id="path40"
       style="fill:url(#e)" />
    <path
       d="m 2,9 h 18 v 1 H 2 Z"
       fill="#fcfcfc"
       id="path42" />
    <path
       d="m 2,9 h 9 v 1 H 2 Z m 0,17 h 4 v 1 H 2 Z m 6,0 h 12 v 1 H 8 Z M 2,24 h 4 v 1 H 2 Z m 6,0 h 14 v 1 H 8 Z M 2,22 h 4 v 1 H 2 Z m 6,0 h 12 v 1 H 8 Z M 2,20 h 4 v 1 H 2 Z m 6,0 h 14 v 1 H 8 Z M 2,18 h 4 v 1 H 2 Z m 6,0 h 10 v 1 H 8 Z M 2,16 h 4 v 1 H 2 Z m 6,0 h 16 v 1 H 8 Z M 2,14 h 4 v 1 H 2 Z m 6,0 h 18 v 1 H 8 Z M 2,12 h 4 v 1 H 2 Z m 6,0 h 12 v 1 H 8 Z"
       fill="url(#f)"
       id="path44"
       style="fill:url(#f)" />
  </g>
  <path
     style="display:inline;mix-blend-mode:normal;fill:url(#linearGradient3403);fill-opacity:1;stroke:url(#linearGradient20558);stroke-width:1.16242;stroke-linecap:butt;stroke-linejoin:round;stroke-miterlimit:4;stroke-dasharray:none;stroke-opacity:1;filter:url(#filter20720)"
     d="M 4.7043071,3.9814882 4.6913695,60.80196 H 58.59546 l 1.022155,-2.866369 c 0,0 -23.87537,0.766388 -32.844441,-4.140386 C 16.257548,48.042344 11.401114,4.0978197 11.401114,4.0978197 Z"
     id="path1686"
     sodipodi:nodetypes="ccccscc"
     transform="matrix(0.49530655,0,0,0.49530655,0.32409325,0.23228439)"
     inkscape:label="folder" />
  <rect
     style="display:inline;fill:none;fill-opacity:1;stroke:url(#linearGradient4557);stroke-width:3.71366;stroke-linejoin:round;stroke-miterlimit:7.8;stroke-dasharray:none;stroke-opacity:0.995146;filter:url(#filter4601)"
     id="rect4539"
     width="62.567089"
     height="62.866646"
     x="1.0323594"
     y="0.59551275"
     ry="6.2447233"
     rx="5.8029528"
     transform="matrix(0.46399463,0,0,0.4630489,1.1562887,1.2331482)"
     inkscape:label="contour" />
</svg>

<svg width="32" height="32" version="1.1" viewBox="0 0 32 32" xmlns="http://www.w3.org/2000/svg" xmlns:xlink="http://www.w3.org/1999/xlink">
<defs>
<linearGradient id="linearGradient3403" x1="6.9492" x2="11.215" y1="4.5549" y2="59.052" gradientUnits="userSpaceOnUse">
<stop style="stop-color:#32373c" offset="0"/>
<stop style="stop-color:#1a1a1a" offset=".36805"/>
<stop style="stop-color:#31363b" offset="1"/>
</linearGradient>
<linearGradient id="linearGradient20558" x1="25.802" x2="25.111" y1="20.374" y2="58.913" gradientUnits="userSpaceOnUse">
<stop style="stop-color:#3d3d3d" offset="0"/>
<stop offset=".61772"/>
<stop style="stop-color:#3d3d3d" offset="1"/>
</linearGradient>
<linearGradient id="linearGradient4557" x1="43.5" x2="44.142" y1="64.012" y2=".30621" gradientTransform="translate(.36068 -.13017)" gradientUnits="userSpaceOnUse">
<stop style="stop-color:#141618" offset="0"/>
<stop style="stop-color:#686868" offset=".51821"/>
<stop style="stop-color:#31363b" offset="1"/>
</linearGradient>
<linearGradient id="b" x2="0" y1="543.8" y2="502.66" gradientTransform="matrix(.66667 0 0 .63518 -256.38 -317.28)" gradientUnits="userSpaceOnUse">
<stop stop-color="#c6cdd1" offset="0"/>
<stop stop-color="#e0e5e7" offset="1"/>
</linearGradient>
<linearGradient id="c" x1="7" x2="22" y1="10" y2="25" gradientUnits="userSpaceOnUse">
<stop offset="0"/>
<stop stop-opacity="0" offset="1"/>
</linearGradient>
<radialGradient id="d" cx="2" cy="5.5" r="14.5" gradientTransform="matrix(0 1.3793 -2.2759 0 14.517 9.241)" gradientUnits="userSpaceOnUse" xlink:href="#a"/>
<linearGradient id="a">
<stop stop-color="#292c2f" offset="0"/>
<stop stop-opacity="0" offset="1"/>
</linearGradient>
<radialGradient id="e" cx="12" cy="1" r="9.5" gradientTransform="matrix(0 .31579 -1.8948 -5e-5 3.895 5.21)" gradientUnits="userSpaceOnUse" xlink:href="#a"/>
<linearGradient id="f" x1="2" x2="2" y1="27" y2="9" gradientUnits="userSpaceOnUse">
<stop stop-color="#31363b" offset="0"/>
<stop stop-color="#4f575f" offset="1"/>
</linearGradient>
</defs>
<g transform="matrix(.92408 0 0 1 1.3231 -.59203)">
<path d="m0 6c0-3 1-4 4.1059-4h23.964c2.9306 0 3.9306 1 3.9306 4v21c0 2-1 3-2.9855 3h-26.015c-2 0-3-1-3-3.0901z" fill="url(#b)" style="fill:url(#b)"/>
<path d="m1 28 30-20 1 1v21h-29z" fill="url(#c)" fill-rule="evenodd" opacity=".2" style="fill:url(#c)"/>
<path d="m4 2h24c3 0 4 1 4 4h-32c0-3 1-4 4-4z" fill="#566069"/>
<path d="m0 6h32v1h-32z" fill="#3daee9"/>
<path d="m1 8h30v20h-30z" fill="#eff0f1"/>
<rect x="27.591" y="3.314" width="2" height="1.7741" rx="1" fill="#eff0f1" style="stroke-width:.94184"/>
<path d="m2 27 1 1h28v-15l-1-1z" fill="url(#d)" opacity=".2" style="fill:url(#d)"/>
<path d="m2 12h28v15h-28z" fill="#fcfcfc"/>
<path d="m2 10 2 2h16v-2l-1-1z" fill="url(#e)" opacity=".2" style="fill:url(#e)"/>
<path d="m2 9h18v1h-18z" fill="#fcfcfc"/>
<path d="m2 9h9v1h-9zm0 17h4v1h-4zm6 0h12v1h-12zm-6-2h4v1h-4zm6 0h14v1h-14zm-6-2h4v1h-4zm6 0h12v1h-12zm-6-2h4v1h-4zm6 0h14v1h-14zm-6-2h4v1h-4zm6 0h10v1h-10zm-6-2h4v1h-4zm6 0h16v1h-16zm-6-2h4v1h-4zm6 0h18v1h-18zm-6-2h4v1h-4zm6 0h12v1h-12z" fill="url(#f)" style="fill:url(#f)"/>
</g>
<path transform="matrix(.49531 0 0 .49531 .32409 .23228)" d="m4.7043 3.9815-0.012938 56.82h53.904l1.0222-2.8664s-23.875 0.76639-32.844-4.1404c-10.516-5.7529-15.372-49.697-15.372-49.697z" style="fill:url(#linearGradient3403);mix-blend-mode:normal;stroke-linejoin:round;stroke-width:1.1624;stroke:url(#linearGradient20558)"/>
<rect transform="matrix(.46399 0 0 .46305 1.1563 1.2331)" x="1.0324" y=".59551" width="62.567" height="62.867" rx="5.803" ry="6.2447" style="fill:none;stroke-linejoin:round;stroke-miterlimit:7.8;stroke-opacity:.99515;stroke-width:3.7137;stroke:url(#linearGradient4557)"/>
</svg>
